svg/building/store_2_line.svg

<svg xmlns="http://www.w3.org/2000/svg" width="24" height="24" viewBox="0 0 24 24"><g fill="none" fill-rule="evenodd"><rect width="24" height="24"/><path fill="#09244B" d="M18,2 C19.6569,2 21,3.34315 21,5 L21,18 C21,19.6569 19.6569,21 18,21 L5,21 C3.34315,21 2,19.6569 2,18 L2,5 C2,3.34315 3.34315,2 5,2 L18,2 Z M12,14 L11,14 C10.4477,14 10,14.4477 10,15 L10,19 L13,19 L13,15 C13,14.4477 12.5523,14 12,14 Z M14.1407,8.7972 C13.499,9.53418 12.5539,10 11.5,10 C10.4461,10 9.50097,9.53418 8.85931,8.7972 C8.13315,9.53939 7.12037,10 6,10 C5.27143,10 4.58835,9.80521 4,9.46487 L4,18 C4,18.5523 4.44772,19 5,19 L8,19 L8,15 C8,13.3431 9.34315,12 11,12 L12,12 C13.6569,12 15,13.3431 15,15 L15,19 L18,19 C18.5523,19 19,18.5523 19,18 L19,9.46487 C18.4117,9.80521 17.7286,10 17,10 C15.8796,10 14.8669,9.53938 14.1407,8.7972 Z M18,4 L5,4 C4.48716857,4 4.06449347,4.38604429 4.0067278,4.88337975 L4,5 L4,6 C4,7.10457 4.89543,8 6,8 C7.05436227,8 7.91816517,7.18412267 7.99451427,6.14926241 L8,6 C8,5.44772 8.44772,5 9,5 C9.51283143,5 9.93550653,5.38604429 9.9932722,5.88337975 L10,6 L10,6.5 C10,7.32843 10.6716,8 11.5,8 C12.2796706,8 12.9204457,7.40511446 12.9931332,6.64446046 L13,6.5 L13,6 C13,5.44772 13.4477,5 14,5 C14.5523,5 15,5.44772 15,6 C15,7.10457 15.8954,8 17,8 C18.0543909,8 18.9181678,7.18412267 18.9945144,6.14926241 L19,6 L19,5 C19,4.48716857 18.613973,4.06449347 18.1166239,4.0067278 L18,4 Z"/></g></svg>

<svg xmlns="http://www.w3.org/2000/svg" width="24" height="24"><g fill="none" fill-rule="evenodd"><path d="M0 0h24v24H0z"/><path fill="#09244B" d="M18 2a3 3 0 0 1 3 3v13a3 3 0 0 1-3 3H5a3 3 0 0 1-3-3V5a3 3 0 0 1 3-3zm-6 12h-1a1 1 0 0 0-1 1v4h3v-4a1 1 0 0 0-1-1m2.14-5.203A3.492 3.492 0 0 1 11.5 10a3.492 3.492 0 0 1-2.64-1.203A3.988 3.988 0 0 1 6 10a3.982 3.982 0 0 1-2-.535V18a1 1 0 0 0 1 1h3v-4a3 3 0 0 1 3-3h1a3 3 0 0 1 3 3v4h3a1 1 0 0 0 1-1V9.465A3.981 3.981 0 0 1 17 10c-1.12 0-2.133-.46-2.86-1.203M18 4H5a1 1 0 0 0-.993.883L4 5v1a2 2 0 0 0 3.995.15L8 6a1 1 0 0 1 1.993-.117L10 6v.5a1.5 1.5 0 0 0 2.993.144L13 6.5V6a1 1 0 1 1 2 0 2 2 0 0 0 3.995.15L19 6V5a1 1 0 0 0-.883-.993z"/></g></svg>
